flaticon/game/pacman.svg

<svg xmlns="http://www.w3.org/2000/svg" width="32" height="32" viewBox="0 0 24 24">
    <path d="M4.136719 21.515625C4.136719 21.746094 4.324219 21.929688 4.550781 21.929688L6.621094 21.929688C6.847656 21.929688 7.035156 21.746094 7.035156 21.515625 7.035156 21.289062 6.847656 21.101562 6.621094 21.101562L4.550781 21.101562C4.324219 21.101562 4.136719 21.289062 4.136719 21.515625zM8.277344 21.929688L19.863281 21.929688C20.089844 21.929688 20.277344 21.746094 20.277344 21.515625 20.277344 21.289062 20.089844 21.101562 19.863281 21.101562L8.277344 21.101562C8.046875 21.101562 7.863281 21.289062 7.863281 21.515625 7.863281 21.746094 8.046875 21.929688 8.277344 21.929688zM8.277344 21.929688"/>
    <path d="M 21.558594 0 L 4.097656 0 C 3.207031 0 2.484375 0.722656 2.484375 1.613281 L 2.484375 5.421875 C 2.480469 5.421875 2.480469 5.421875 2.480469 5.421875 C 2.472656 5.421875 2.46875 5.425781 2.460938 5.425781 C 2.339844 5.453125 2.226562 5.488281 2.117188 5.535156 C 2.074219 5.550781 2.039062 5.574219 2 5.589844 C 1.925781 5.628906 1.851562 5.664062 1.78125 5.710938 C 1.742188 5.738281 1.703125 5.765625 1.664062 5.796875 C 1.601562 5.84375 1.542969 5.890625 1.484375 5.941406 C 1.449219 5.976562 1.414062 6.015625 1.378906 6.050781 C 1.328125 6.105469 1.28125 6.164062 1.238281 6.226562 C 1.207031 6.265625 1.175781 6.308594 1.148438 6.351562 C 1.109375 6.414062 1.074219 6.484375 1.039062 6.554688 C 1.015625 6.597656 0.996094 6.640625 0.976562 6.6875 C 0.945312 6.765625 0.921875 6.847656 0.902344 6.933594 C 0.890625 6.972656 0.875 7.015625 0.867188 7.054688 C 0.84375 7.183594 0.828125 7.3125 0.828125 7.449219 C 0.828125 7.546875 0.835938 7.648438 0.851562 7.746094 C 0.855469 7.769531 0.859375 7.792969 0.863281 7.816406 C 0.882812 7.914062 0.902344 8.007812 0.9375 8.097656 C 0.9375 8.105469 0.941406 8.113281 0.941406 8.117188 C 0.972656 8.207031 1.011719 8.289062 1.054688 8.371094 C 1.0625 8.394531 1.074219 8.414062 1.085938 8.4375 C 1.132812 8.523438 1.183594 8.605469 1.246094 8.683594 C 1.246094 8.683594 1.246094 8.6875 1.25 8.691406 C 1.246094 8.695312 1.242188 8.703125 1.238281 8.707031 C 1.191406 8.769531 1.148438 8.835938 1.109375 8.90625 C 1.085938 8.945312 1.0625 8.988281 1.042969 9.027344 C 1.015625 9.089844 0.988281 9.148438 0.964844 9.214844 C 0.941406 9.277344 0.921875 9.339844 0.90625 9.402344 C 0.890625 9.453125 0.875 9.503906 0.867188 9.558594 C 0.84375 9.679688 0.828125 9.804688 0.828125 9.929688 C 0.828125 10.03125 0.835938 10.128906 0.851562 10.226562 C 0.855469 10.25 0.859375 10.273438 0.863281 10.296875 C 0.882812 10.394531 0.902344 10.488281 0.9375 10.582031 C 0.9375 10.589844 0.941406 10.59375 0.941406 10.601562 C 0.972656 10.6875 1.011719 10.773438 1.054688 10.855469 C 1.0625 10.875 1.074219 10.898438 1.085938 10.917969 C 1.132812 11.003906 1.183594 11.085938 1.246094 11.164062 C 1.246094 11.167969 1.246094 11.171875 1.25 11.171875 C 1.246094 11.179688 1.242188 11.183594 1.238281 11.1875 C 1.191406 11.253906 1.148438 11.320312 1.109375 11.386719 C 1.085938 11.429688 1.0625 11.46875 1.042969 11.511719 C 1.015625 11.570312 0.988281 11.632812 0.964844 11.695312 C 0.941406 11.757812 0.921875 11.820312 0.90625 11.886719 C 0.890625 11.9375 0.875 11.988281 0.867188 12.039062 C 0.84375 12.164062 0.828125 12.289062 0.828125 12.414062 C 0.828125 12.515625 0.835938 12.613281 0.851562 12.710938 C 0.855469 12.734375 0.859375 12.757812 0.863281 12.78125 C 0.882812 12.878906 0.902344 12.972656 0.9375 13.066406 C 0.9375 13.070312 0.941406 13.078125 0.941406 13.085938 C 0.972656 13.171875 1.011719 13.253906 1.054688 13.335938 C 1.0625 13.359375 1.074219 13.378906 1.085938 13.402344 C 1.132812 13.488281 1.183594 13.570312 1.246094 13.648438 C 1.246094 13.652344 1.246094 13.652344 1.25 13.65625 C 1.246094 13.660156 1.242188 13.667969 1.238281 13.671875 C 1.191406 13.734375 1.148438 13.800781 1.109375 13.871094 C 1.085938 13.910156 1.0625 13.953125 1.042969 13.992188 C 1.015625 14.054688 0.988281 14.117188 0.964844 14.179688 C 0.941406 14.242188 0.921875 14.304688 0.90625 14.367188 C 0.890625 14.417969 0.875 14.46875 0.867188 14.523438 C 0.84375 14.644531 0.828125 14.769531 0.828125 14.898438 C 0.828125 15.03125 0.84375 15.164062 0.867188 15.289062 C 0.875 15.332031 0.890625 15.371094 0.902344 15.414062 C 0.921875 15.496094 0.945312 15.578125 0.976562 15.65625 C 0.996094 15.703125 1.015625 15.746094 1.039062 15.789062 C 1.074219 15.859375 1.109375 15.929688 1.148438 15.996094 C 1.175781 16.039062 1.207031 16.078125 1.238281 16.121094 C 1.28125 16.179688 1.328125 16.238281 1.378906 16.292969 C 1.414062 16.332031 1.449219 16.367188 1.484375 16.402344 C 1.542969 16.453125 1.601562 16.503906 1.664062 16.546875 C 1.703125 16.578125 1.742188 16.609375 1.78125 16.632812 C 1.851562 16.679688 1.925781 16.71875 2 16.753906 C 2.039062 16.773438 2.074219 16.792969 2.117188 16.8125 C 2.226562 16.855469 2.339844 16.890625 2.460938 16.917969 C 2.46875 16.917969 2.472656 16.921875 2.480469 16.925781 C 2.480469 16.925781 2.480469 16.925781 2.484375 16.925781 L 2.484375 21.515625 C 2.484375 22.886719 3.597656 24 4.964844 24 L 23.171875 24 L 23.171875 1.613281 C 23.171875 0.722656 22.449219 0 21.558594 0 Z M 22.34375 20.277344 L 21.101562 20.277344 C 20.875 20.277344 20.691406 20.460938 20.691406 20.691406 C 20.691406 20.917969 20.875 21.101562 21.101562 21.101562 L 22.34375 21.101562 L 22.34375 21.929688 L 21.101562 21.929688 C 20.875 21.929688 20.691406 22.117188 20.691406 22.34375 C 20.691406 22.574219 20.875 22.757812 21.101562 22.757812 L 22.34375 22.757812 L 22.34375 23.171875 L 4.964844 23.171875 C 4.050781 23.171875 3.308594 22.429688 3.308594 21.515625 C 3.308594 20.605469 4.050781 19.863281 4.964844 19.863281 L 22.34375 19.863281 Z M 4.964844 19.035156 C 4.816406 19.035156 4.667969 19.050781 4.527344 19.074219 C 4.515625 19.078125 4.5 19.078125 4.488281 19.082031 C 4.355469 19.109375 4.222656 19.148438 4.097656 19.195312 C 4.078125 19.199219 4.0625 19.207031 4.046875 19.214844 C 3.921875 19.261719 3.808594 19.320312 3.695312 19.386719 C 3.675781 19.398438 3.660156 19.410156 3.640625 19.421875 C 3.53125 19.488281 3.429688 19.566406 3.332031 19.652344 C 3.324219 19.65625 3.316406 19.664062 3.308594 19.667969 L 3.308594 15.308594 C 3.308594 15.082031 3.125 14.898438 2.898438 14.898438 C 2.667969 14.898438 2.484375 15.082031 2.484375 15.308594 L 2.484375 16.0625 C 2.003906 15.890625 1.65625 15.433594 1.65625 14.898438 C 1.65625 14.808594 1.664062 14.722656 1.683594 14.640625 C 1.6875 14.625 1.691406 14.613281 1.695312 14.597656 C 1.714844 14.527344 1.734375 14.457031 1.765625 14.390625 C 1.765625 14.386719 1.769531 14.382812 1.773438 14.375 C 1.84375 14.222656 1.949219 14.085938 2.085938 13.96875 C 2.199219 13.867188 2.375 13.75 2.605469 13.695312 C 2.613281 13.691406 2.625 13.6875 2.636719 13.683594 C 2.71875 13.664062 2.804688 13.65625 2.898438 13.65625 C 2.988281 13.65625 3.074219 13.664062 3.15625 13.683594 C 3.167969 13.6875 3.175781 13.691406 3.1875 13.695312 C 3.414062 13.75 3.589844 13.863281 3.707031 13.964844 C 3.710938 13.96875 3.710938 13.96875 3.714844 13.96875 C 3.972656 14.195312 4.136719 14.527344 4.136719 14.898438 C 4.136719 15.125 4.324219 15.308594 4.550781 15.308594 C 4.78125 15.308594 4.964844 15.125 4.964844 14.898438 C 4.964844 14.28125 4.6875 13.730469 4.261719 13.351562 C 4.257812 13.351562 4.257812 13.347656 4.253906 13.34375 C 4.242188 13.332031 4.226562 13.324219 4.214844 13.3125 C 3.855469 13.015625 3.398438 12.828125 2.898438 12.828125 C 2.640625 12.828125 2.398438 12.878906 2.171875 12.964844 C 2.167969 12.96875 2.164062 12.96875 2.15625 12.96875 C 2.082031 13 2.007812 13.035156 1.9375 13.074219 C 1.917969 13.085938 1.894531 13.09375 1.875 13.105469 C 1.835938 13.046875 1.800781 12.992188 1.773438 12.933594 C 1.765625 12.917969 1.761719 12.902344 1.753906 12.890625 C 1.730469 12.832031 1.710938 12.769531 1.695312 12.710938 C 1.691406 12.6875 1.683594 12.667969 1.679688 12.648438 C 1.664062 12.570312 1.65625 12.492188 1.65625 12.414062 C 1.65625 12.324219 1.664062 12.238281 1.683594 12.15625 C 1.6875 12.140625 1.691406 12.128906 1.695312 12.117188 C 1.714844 12.046875 1.734375 11.976562 1.765625 11.910156 C 1.765625 11.902344 1.769531 11.898438 1.773438 11.894531 C 1.84375 11.742188 1.949219 11.601562 2.085938 11.484375 C 2.199219 11.382812 2.375 11.269531 2.605469 11.210938 C 2.613281 11.207031 2.625 11.203125 2.636719 11.203125 C 2.71875 11.183594 2.804688 11.171875 2.898438 11.171875 C 2.988281 11.171875 3.074219 11.183594 3.15625 11.199219 C 3.167969 11.203125 3.175781 11.207031 3.1875 11.210938 C 3.414062 11.269531 3.589844 11.382812 3.707031 11.484375 C 3.710938 11.484375 3.710938 11.484375 3.714844 11.488281 C 3.972656 11.714844 4.136719 12.042969 4.136719 12.414062 C 4.136719 12.640625 4.324219 12.828125 4.550781 12.828125 C 4.78125 12.828125 4.964844 12.640625 4.964844 12.414062 C 4.964844 11.796875 4.6875 11.25 4.261719 10.871094 C 4.257812 10.867188 4.257812 10.863281 4.253906 10.859375 C 4.242188 10.851562 4.226562 10.84375 4.214844 10.832031 C 3.855469 10.53125 3.398438 10.34375 2.898438 10.34375 C 2.640625 10.34375 2.402344 10.398438 2.175781 10.480469 C 2.171875 10.484375 2.164062 10.484375 2.15625 10.488281 C 2.082031 10.515625 2.007812 10.554688 1.9375 10.589844 C 1.917969 10.601562 1.894531 10.609375 1.875 10.621094 C 1.835938 10.566406 1.800781 10.507812 1.773438 10.449219 C 1.765625 10.433594 1.761719 10.421875 1.753906 10.40625 C 1.730469 10.347656 1.710938 10.289062 1.695312 10.226562 C 1.691406 10.207031 1.683594 10.183594 1.679688 10.164062 C 1.664062 10.089844 1.65625 10.011719 1.65625 9.929688 C 1.65625 9.84375 1.664062 9.757812 1.683594 9.671875 C 1.6875 9.660156 1.691406 9.648438 1.695312 9.632812 C 1.714844 9.5625 1.734375 9.492188 1.765625 9.425781 C 1.765625 9.421875 1.769531 9.417969 1.773438 9.410156 C 1.84375 9.257812 1.949219 9.121094 2.085938 9 C 2.199219 8.898438 2.375 8.785156 2.605469 8.730469 C 2.613281 8.726562 2.625 8.722656 2.636719 8.71875 C 2.71875 8.699219 2.804688 8.691406 2.898438 8.691406 C 2.988281 8.691406 3.074219 8.699219 3.15625 8.71875 C 3.167969 8.71875 3.175781 8.726562 3.1875 8.726562 C 3.414062 8.785156 3.589844 8.898438 3.707031 9 C 3.710938 9.003906 3.710938 9.003906 3.714844 9.003906 C 3.972656 9.230469 4.136719 9.5625 4.136719 9.929688 C 4.136719 10.160156 4.324219 10.34375 4.550781 10.34375 C 4.78125 10.34375 4.964844 10.160156 4.964844 9.929688 C 4.964844 9.316406 4.6875 8.765625 4.261719 8.386719 C 4.257812 8.382812 4.257812 8.378906 4.253906 8.378906 C 4.242188 8.367188 4.226562 8.359375 4.214844 8.347656 C 3.855469 8.050781 3.398438 7.863281 2.898438 7.863281 C 2.640625 7.863281 2.402344 7.914062 2.175781 8 C 2.171875 8 2.164062 8.003906 2.15625 8.003906 C 2.082031 8.035156 2.007812 8.070312 1.9375 8.109375 C 1.917969 8.121094 1.894531 8.125 1.875 8.136719 C 1.835938 8.082031 1.800781 8.027344 1.773438 7.964844 C 1.765625 7.953125 1.761719 7.9375 1.753906 7.925781 C 1.730469 7.867188 1.710938 7.804688 1.695312 7.742188 C 1.691406 7.722656 1.683594 7.703125 1.679688 7.683594 C 1.664062 7.605469 1.65625 7.527344 1.65625 7.449219 C 1.65625 6.765625 2.210938 6.207031 2.898438 6.207031 C 3.582031 6.207031 4.136719 6.765625 4.136719 7.449219 C 4.136719 7.675781 4.324219 7.863281 4.550781 7.863281 C 4.78125 7.863281 4.964844 7.675781 4.964844 7.449219 C 4.964844 6.449219 4.253906 5.613281 3.308594 5.421875 L 3.308594 1.613281 C 3.308594 1.179688 3.664062 0.828125 4.097656 0.828125 L 21.558594 0.828125 C 21.992188 0.828125 22.34375 1.179688 22.34375 1.613281 L 22.34375 19.035156 Z M 4.964844 19.035156"/>
    <path d="M 15.925781 7.417969 L 15.632812 7.125 C 13.859375 5.351562 10.96875 5.351562 9.195312 7.125 C 7.421875 8.902344 7.421875 11.789062 9.195312 13.5625 C 10.082031 14.453125 11.246094 14.894531 12.414062 14.894531 C 13.578125 14.894531 14.746094 14.449219 15.632812 13.5625 L 15.925781 13.269531 L 13 10.34375 Z M 14.738281 13.253906 C 13.277344 14.421875 11.132812 14.332031 9.78125 12.976562 C 8.328125 11.527344 8.328125 9.164062 9.78125 7.710938 C 10.507812 6.984375 11.460938 6.621094 12.414062 6.621094 C 13.238281 6.621094 14.0625 6.894531 14.738281 7.433594 L 11.828125 10.34375 Z M 14.738281 13.253906"/>
    <path d="M12.828125 8.277344C12.828125 8.734375 12.457031 9.101562 12 9.101562 11.542969 9.101562 11.171875 8.734375 11.171875 8.277344 11.171875 7.820312 11.542969 7.449219 12 7.449219 12.457031 7.449219 12.828125 7.820312 12.828125 8.277344zM16.136719 9.929688L14.898438 9.929688C14.667969 9.929688 14.484375 10.117188 14.484375 10.34375 14.484375 10.574219 14.667969 10.757812 14.898438 10.757812L16.136719 10.757812C16.367188 10.757812 16.550781 10.574219 16.550781 10.34375 16.550781 10.117188 16.367188 9.929688 16.136719 9.929688zM18.621094 9.929688L17.792969 9.929688C17.566406 9.929688 17.378906 10.117188 17.378906 10.34375 17.378906 10.574219 17.566406 10.757812 17.792969 10.757812L18.621094 10.757812C18.847656 10.757812 19.035156 10.574219 19.035156 10.34375 19.035156 10.117188 18.847656 9.929688 18.621094 9.929688zM18.621094 9.929688"/>
</svg>

<svg xmlns="http://www.w3.org/2000/svg" width="32" height="32" viewBox="0 0 24 24">
    <path d="M4.137 21.516c0 .23.187.414.414.414h2.07a.414.414 0 0 0 0-.828h-2.07a.417.417 0 0 0-.414.414zm0 0M8.277 21.93h11.586a.414.414 0 0 0 0-.828H8.277a.414.414 0 0 0 0 .828zm0 0"/>
    <path d="M21.559 0H4.098c-.891 0-1.614.723-1.614 1.613v3.809H2.48c-.007 0-.011.004-.02.004a1.96 1.96 0 0 0-.343.11c-.043.015-.078.038-.117.054-.074.039-.148.074-.219.12-.039.028-.078.056-.117.087a3.229 3.229 0 0 0-.18.144c-.035.036-.07.075-.105.11a1.54 1.54 0 0 0-.14.176 1.45 1.45 0 0 0-.09.125c-.04.062-.075.132-.11.203a1.383 1.383 0 0 0-.137.379c-.011.039-.027.082-.035.12a1.9 1.9 0 0 0-.016.691l.012.071c.02.098.04.192.075.282 0 .007.003.015.003.02.032.089.07.171.114.253.008.024.02.043.03.066a1.659 1.659 0 0 0 .165.254l-.012.016a1.74 1.74 0 0 0-.129.2c-.023.038-.046.081-.066.12-.027.063-.055.121-.078.188a1.726 1.726 0 0 0-.059.187c-.015.051-.031.102-.039.157a1.864 1.864 0 0 0-.016.668l.012.07c.02.098.04.191.075.285 0 .008.003.012.003.02.032.085.07.171.114.253.008.02.02.043.03.063.048.086.099.168.161.246 0 .004 0 .008.004.008a2.862 2.862 0 0 0-.14.215c-.024.043-.047.082-.067.125a2.59 2.59 0 0 0-.078.183 1.552 1.552 0 0 0-.059.192 1.09 1.09 0 0 0-.039.152 1.864 1.864 0 0 0-.004.742c.02.098.04.192.075.285 0 .004.003.012.003.02.032.086.07.168.114.25.008.023.02.043.03.066a1.659 1.659 0 0 0 .165.254l-.012.016a1.74 1.74 0 0 0-.129.2c-.023.038-.046.081-.066.12-.027.063-.055.125-.078.188a1.726 1.726 0 0 0-.059.187c-.015.051-.031.102-.039.156-.023.122-.039.247-.039.375 0 .133.016.266.04.391.007.043.023.082.034.125a1.383 1.383 0 0 0 .137.375c.035.07.07.14.11.207.027.043.058.082.09.125.042.059.09.117.14.172.035.039.07.074.105.11.059.05.118.1.18.144.04.031.078.062.117.086.07.047.145.086.219.12.04.02.074.04.117.06.11.042.223.078.344.105.008 0 .012.004.02.008h.003v4.59A2.485 2.485 0 0 0 4.964 24h18.208V1.613c0-.89-.723-1.613-1.613-1.613zm.785 20.277h-1.242a.411.411 0 0 0-.41.414c0 .227.183.41.41.41h1.242v.829h-1.242a.413.413 0 0 0-.41.414c0 .23.183.414.41.414h1.242v.414H4.964a1.657 1.657 0 0 1-1.655-1.656c0-.91.742-1.653 1.656-1.653h17.379zm-17.38-1.242a2.68 2.68 0 0 0-.437.04c-.011.003-.027.003-.039.007a2.638 2.638 0 0 0-.793.305c-.02.011-.035.023-.054.035-.11.066-.211.144-.309.23-.008.004-.016.012-.023.016v-4.36a.41.41 0 0 0-.41-.41.411.411 0 0 0-.415.41v.755a1.243 1.243 0 0 1-.8-1.422l.011-.043c.02-.07.04-.141.07-.207 0-.004.005-.008.008-.016.07-.152.176-.29.313-.406.113-.102.289-.219.52-.274.007-.004.019-.008.03-.011.083-.02.169-.028.262-.028.09 0 .176.008.258.028l.031.011a1.247 1.247 0 0 1 .528.274c.258.226.422.558.422.93 0 .226.187.41.414.41.23 0 .414-.184.414-.41a2.07 2.07 0 0 0-.703-1.547c-.004 0-.004-.004-.008-.008-.012-.012-.027-.02-.04-.031a2.065 2.065 0 0 0-1.316-.485c-.257 0-.5.05-.726.137-.004.004-.008.004-.016.004a2.252 2.252 0 0 0-.219.105c-.019.012-.042.02-.062.031a1.318 1.318 0 0 1-.102-.171c-.007-.016-.011-.032-.02-.043a1.605 1.605 0 0 1-.058-.18c-.004-.024-.011-.043-.015-.063a1.192 1.192 0 0 1 .015-.53c.02-.071.04-.141.07-.208 0-.008.005-.012.008-.015a1.21 1.21 0 0 1 .313-.41 1.244 1.244 0 0 1 1.07-.286l.031.012a1.296 1.296 0 0 1 .528.277c.258.227.422.555.422.926a.414.414 0 0 0 .828 0c0-.617-.277-1.164-.703-1.543-.004-.004-.004-.008-.008-.012-.012-.007-.027-.015-.04-.027-.359-.3-.816-.488-1.316-.488-.257 0-.496.054-.722.136-.004.004-.012.004-.02.008-.074.028-.148.067-.219.102-.019.012-.042.02-.062.031a1.102 1.102 0 0 1-.102-.172c-.007-.015-.011-.027-.02-.043a1.38 1.38 0 0 1-.058-.18l-.015-.062a1.157 1.157 0 0 1 .004-.492l.011-.04c.02-.07.04-.14.07-.206 0-.004.005-.008.008-.016.07-.152.176-.289.313-.41a1.2 1.2 0 0 1 .52-.27l.03-.011c.083-.02.169-.028.262-.028.09 0 .176.008.258.028.012 0 .02.008.031.008a1.296 1.296 0 0 1 .528.277c.258.226.422.559.422.926a.414.414 0 0 0 .828 0c0-.614-.277-1.164-.703-1.543-.004-.004-.004-.008-.008-.008-.012-.012-.027-.02-.04-.031a2.065 2.065 0 0 0-1.316-.485c-.257 0-.496.051-.722.137-.004 0-.012.004-.02.004a2.252 2.252 0 0 0-.219.105c-.019.012-.042.016-.062.028a.947.947 0 0 1-.102-.172c-.007-.012-.011-.027-.02-.04a1.436 1.436 0 0 1-.058-.183c-.004-.02-.011-.039-.015-.058a1.243 1.243 0 0 1 1.219-1.477c.683 0 1.238.559 1.238 1.242a.414.414 0 0 0 .828 0c0-1-.711-1.836-1.656-2.027V1.613c0-.433.355-.785.789-.785h17.46c.434 0 .786.352.786.785v17.422zm0 0"/>
    <path d="M15.926 7.418l-.293-.293a4.56 4.56 0 0 0-6.438 0 4.56 4.56 0 0 0 0 6.438 4.52 4.52 0 0 0 3.22 1.332 4.543 4.543 0 0 0 3.218-1.332l.293-.293L13 10.344zm-1.188 5.836a3.725 3.725 0 1 1-2.324-6.633c.824 0 1.648.274 2.324.813l-2.91 2.91zm0 0"/>
    <path d="M12.828 8.277a.825.825 0 0 1-.828.825.825.825 0 1 1 0-1.653c.457 0 .828.371.828.828zm0 0M16.137 9.93h-1.239a.414.414 0 0 0 0 .828h1.239a.414.414 0 0 0 0-.828zm0 0M18.621 9.93h-.828a.414.414 0 0 0 0 .828h.828a.414.414 0 0 0 0-.828zm0 0"/>
</svg>
